svg/网络检索.svg

<svg fill="none" viewBox="0 0 24 24"><path fill="#F5F5F5" d="M0 0h24v24H0z"/><path fill="white" d="M-465.778-638.25h793v822h-793z"/><path stroke="#0D131A" strokeLinecap="round" strokeLinejoin="round" strokeWidth="1.5" d="M6 17H2v4h4zM20 3H4v6h16zM12 17V9"/><path stroke="#0D131A" strokeLinecap="round" strokeLinejoin="round" strokeWidth="1.5" d="M4 17v-4h16v4M22 17h-4v4h4zM14 17h-4v4h4zM7 6h1"/></svg>

<svg width="24" height="24" viewBox="0 0 24 24" fill="none" xmlns="http://www.w3.org/2000/svg">
<rect width="24" height="24" fill="#F5F5F5"/>
<rect width="793" height="822" transform="translate(-465.778 -638.25)" fill="white"/>
<path d="M6 17H2V21H6V17Z" stroke="#0D131A" stroke-width="1.5" stroke-linecap="round" stroke-linejoin="round"/>
<path d="M20 3H4V9H20V3Z" stroke="#0D131A" stroke-width="1.5" stroke-linecap="round" stroke-linejoin="round"/>
<path d="M12 17V9" stroke="#0D131A" stroke-width="1.5" stroke-linecap="round" stroke-linejoin="round"/>
<path d="M4 17V13H20V17" stroke="#0D131A" stroke-width="1.5" stroke-linecap="round" stroke-linejoin="round"/>
<path d="M22 17H18V21H22V17Z" stroke="#0D131A" stroke-width="1.5" stroke-linecap="round" stroke-linejoin="round"/>
<path d="M14 17H10V21H14V17Z" stroke="#0D131A" stroke-width="1.5" stroke-linecap="round" stroke-linejoin="round"/>
<path d="M7 6H8" stroke="#0D131A" stroke-width="1.5" stroke-linecap="round" stroke-linejoin="round"/>
</svg>
